X: 42852
T: Wild Hares
R: jig
M: 6/8
K: Eminor
A|BEE EDE|GAB cBA|BEE EDE|
DAD BAG|BEE EDE|GAB cBA|Bee|
gfe|Be^d ee:|:f|gbb bag|faa
agf|egf edA|Be^d eef|gbb b
ag|fdf agf|egf edA|BGF EE:|

